X:18880
T:Within a Mile of Dublin
R:reel
Z:id:hn-reel-547
M:C|
K:Dmix
AD~D2 FEFG|AD~D2 cABG|AD~D2 FEFG|ABcA G2FG:|
Addc AGFG|Adde fdec|Addc AGFG|ABcA G2FG|
Addc AGFG|Adde ~f3g|afge fdec|dcAF G2FG||
"variations"
|:ADDE ~F3G|AD~D2 c2Bc|AD~D2 FEFG|AdcA G2FG:|
Addc AGFG|Addg fdec|Addc AGFG|AdcA G2FG|
Addc AGFG|Adde fefg|(3agf ge fdec|AdcA G2FG||


